website/static/img/icons/slack.svg

<svg fill="none" height="32" viewBox="0 0 32 32" width="32" xmlns="http://www.w3.org/2000/svg"><path clip-rule="evenodd" d="m7.13636 6.06818c0-1.69644 1.37175-3.06818 3.06814-3.06818 1.6965 0 3.0682 1.37174 3.0682 3.06818v1.84091c0 .6778-.5494 1.22727-1.2272 1.22727h-1.841c-1.69639 0-3.06814-1.37174-3.06814-3.06818zm3.06814-.61363c-.34079 0-.61359.2728-.61359.61363s.2728.61364.61359.61364h.6137v-.61364c0-.34083-.2728-.61363-.6137-.61363zm7.3637 0c-.3409 0-.6137.2728-.6137.61363v6.13632c0 .3409.2728.6137.6137.6137.3408 0 .6136-.2728.6136-.6137v-6.13632c0-.34083-.2728-.61363-.6136-.61363zm-3.0682.61363c0-1.69644 1.3717-3.06818 3.0682-3.06818 1.6964 0 3.0682 1.37174 3.0682 3.06818v6.13632c0 1.6965-1.3718 3.0682-3.0682 3.0682-1.6965 0-3.0682-1.3717-3.0682-3.0682zm10.4318 5.52272c-.3408 0-.6136.2728-.6136.6136v.6137h.6136c.3409 0 .6137-.2728.6137-.6137 0-.3408-.2728-.6136-.6137-.6136zm-3.0682.6136c0-1.6964 1.3718-3.06814 3.0682-3.06814 1.6965 0 3.0682 1.37174 3.0682 3.06814 0 1.6965-1.3717 3.0682-3.0682 3.0682h-1.8409c-.6778 0-1.2273-.5494-1.2273-1.2272zm-20.8636 1.2273c0-1.6964 1.37174-3.0682 3.06818-3.0682h6.13632c1.6965 0 3.0682 1.3718 3.0682 3.0682 0 1.6965-1.3717 3.0682-3.0682 3.0682h-6.13632c-1.69644 0-3.06818-1.3717-3.06818-3.0682zm3.06818-.6136c-.34083 0-.61363.2728-.61363.6136 0 .3409.2728.6137.61363.6137h6.13632c.3409 0 .6137-.2728.6137-.6137 0-.3408-.2728-.6136-.6137-.6136zm14.72732 6.1363c-.3409 0-.6137.2728-.6137.6137 0 .3408.2728.6136.6137.6136h6.1363c.3409 0 .6137-.2728.6137-.6136 0-.3409-.2728-.6137-.6137-.6137zm-3.0682.6137c0-1.6965 1.3717-3.0682 3.0682-3.0682h6.1363c1.6965 0 3.0682 1.3717 3.0682 3.0682 0 1.6964-1.3717 3.0682-3.0682 3.0682h-6.1363c-1.6965 0-3.0682-1.3718-3.0682-3.0682zm-11.65912.6136c-.34083 0-.61363.2728-.61363.6137 0 .3408.2728.6136.61363.6136s.61364-.2728.61364-.6136v-.6137zm-3.06818.6137c0-1.6965 1.37174-3.0682 3.06818-3.0682h1.84091c.6778 0 1.22727.5494 1.22727 1.2272v1.841c0 1.6964-1.37174 3.0681-3.06818 3.0681s-3.06818-1.3717-3.06818-3.0681zm10.4318-.6137c-.3408 0-.6136.2728-.6136.6137v6.1363c0 .3409.2728.6137.6136.6137.3409 0 .6137-.2728.6137-.6137v-6.1363c0-.3409-.2728-.6137-.6137-.6137zm-3.06816.6137c0-1.6965 1.37174-3.0682 3.06816-3.0682 1.6965 0 3.0682 1.3717 3.0682 3.0682v6.1363c0 1.6965-1.3717 3.0682-3.0682 3.0682-1.69642 0-3.06816-1.3717-3.06816-3.0682zm7.36366 4.2954c0-.6778.5494-1.2273 1.2272-1.2273h1.841c1.6964 0 3.0681 1.3718 3.0681 3.0682 0 1.6965-1.3717 3.0682-3.0681 3.0682-1.6965 0-3.0682-1.3717-3.0682-3.0682zm2.4545 1.2273v.6136c0 .3409.2728.6137.6137.6137.3408 0 .6136-.2728.6136-.6137 0-.3408-.2728-.6136-.6136-.6136z" fill="#ff694a" fill-rule="evenodd"/></svg>

<svg width="32" height="32" viewBox="0 0 32 32" fill="none" xmlns="http://www.w3.org/2000/svg">
<path fill-rule="evenodd" clip-rule="evenodd" d="M7.13636 6.06818C7.13636 4.37174 8.50811 3 10.2045 3C11.901 3 13.2727 4.37174 13.2727 6.06818V7.90909C13.2727 8.58689 12.7233 9.13636 12.0455 9.13636H10.2045C8.50811 9.13636 7.13636 7.76462 7.13636 6.06818ZM10.2045 5.45455C9.86371 5.45455 9.59091 5.72735 9.59091 6.06818C9.59091 6.40901 9.86371 6.68182 10.2045 6.68182H10.8182V6.06818C10.8182 5.72735 10.5454 5.45455 10.2045 5.45455ZM17.5682 5.45455C17.2273 5.45455 16.9545 5.72735 16.9545 6.06818V12.2045C16.9545 12.5454 17.2273 12.8182 17.5682 12.8182C17.909 12.8182 18.1818 12.5454 18.1818 12.2045V6.06818C18.1818 5.72735 17.909 5.45455 17.5682 5.45455ZM14.5 6.06818C14.5 4.37174 15.8717 3 17.5682 3C19.2646 3 20.6364 4.37174 20.6364 6.06818V12.2045C20.6364 13.901 19.2646 15.2727 17.5682 15.2727C15.8717 15.2727 14.5 13.901 14.5 12.2045V6.06818ZM24.9318 11.5909C24.591 11.5909 24.3182 11.8637 24.3182 12.2045V12.8182H24.9318C25.2727 12.8182 25.5455 12.5454 25.5455 12.2045C25.5455 11.8637 25.2727 11.5909 24.9318 11.5909ZM21.8636 12.2045C21.8636 10.5081 23.2354 9.13636 24.9318 9.13636C26.6283 9.13636 28 10.5081 28 12.2045C28 13.901 26.6283 15.2727 24.9318 15.2727H23.0909C22.4131 15.2727 21.8636 14.7233 21.8636 14.0455V12.2045ZM1 13.4318C1 11.7354 2.37174 10.3636 4.06818 10.3636H10.2045C11.901 10.3636 13.2727 11.7354 13.2727 13.4318C13.2727 15.1283 11.901 16.5 10.2045 16.5H4.06818C2.37174 16.5 1 15.1283 1 13.4318ZM4.06818 12.8182C3.72735 12.8182 3.45455 13.091 3.45455 13.4318C3.45455 13.7727 3.72735 14.0455 4.06818 14.0455H10.2045C10.5454 14.0455 10.8182 13.7727 10.8182 13.4318C10.8182 13.091 10.5454 12.8182 10.2045 12.8182H4.06818ZM18.7955 18.9545C18.4546 18.9545 18.1818 19.2273 18.1818 19.5682C18.1818 19.909 18.4546 20.1818 18.7955 20.1818H24.9318C25.2727 20.1818 25.5455 19.909 25.5455 19.5682C25.5455 19.2273 25.2727 18.9545 24.9318 18.9545H18.7955ZM15.7273 19.5682C15.7273 17.8717 17.099 16.5 18.7955 16.5H24.9318C26.6283 16.5 28 17.8717 28 19.5682C28 21.2646 26.6283 22.6364 24.9318 22.6364H18.7955C17.099 22.6364 15.7273 21.2646 15.7273 19.5682ZM4.06818 20.1818C3.72735 20.1818 3.45455 20.4546 3.45455 20.7955C3.45455 21.1363 3.72735 21.4091 4.06818 21.4091C4.40901 21.4091 4.68182 21.1363 4.68182 20.7955V20.1818H4.06818ZM1 20.7955C1 19.099 2.37174 17.7273 4.06818 17.7273H5.90909C6.58689 17.7273 7.13636 18.2767 7.13636 18.9545V20.7955C7.13636 22.4919 5.76462 23.8636 4.06818 23.8636C2.37174 23.8636 1 22.4919 1 20.7955ZM11.4318 20.1818C11.091 20.1818 10.8182 20.4546 10.8182 20.7955V26.9318C10.8182 27.2727 11.091 27.5455 11.4318 27.5455C11.7727 27.5455 12.0455 27.2727 12.0455 26.9318V20.7955C12.0455 20.4546 11.7727 20.1818 11.4318 20.1818ZM8.36364 20.7955C8.36364 19.099 9.73538 17.7273 11.4318 17.7273C13.1283 17.7273 14.5 19.099 14.5 20.7955V26.9318C14.5 28.6283 13.1283 30 11.4318 30C9.73538 30 8.36364 28.6283 8.36364 26.9318V20.7955ZM15.7273 25.0909C15.7273 24.4131 16.2767 23.8636 16.9545 23.8636H18.7955C20.4919 23.8636 21.8636 25.2354 21.8636 26.9318C21.8636 28.6283 20.4919 30 18.7955 30C17.099 30 15.7273 28.6283 15.7273 26.9318V25.0909ZM18.1818 26.3182V26.9318C18.1818 27.2727 18.4546 27.5455 18.7955 27.5455C19.1363 27.5455 19.4091 27.2727 19.4091 26.9318C19.4091 26.591 19.1363 26.3182 18.7955 26.3182H18.1818Z" fill="#FF694A"/>
</svg>
